svgs/sharp-thin/list-music.svg

<svg xmlns="http://www.w3.org/2000/svg" viewBox="0 0 512 512"><!--! Font Awesome Pro 6.6.0 by @fontawesome - https://fontawesome.com License - https://fontawesome.com/license (Commercial License) Copyright 2024 Fonticons, Inc. --><path d="M384 59.5L496 22.2l0 126.3L384 185.8l0-57.8 0-68.5zM368 48l0 80 0 63.1 0 16.9 0 182.8c-19.6-23.2-55.3-38.8-96-38.8c-61.9 0-112 35.8-112 80s50.1 80 112 80s112-35.8 112-80l0-229.3L512 160l0-143.1L512 0 496 5.3 368 48zm0 384c0 15.6-8.8 31.2-26.1 43.5C324.6 487.9 300 496 272 496s-52.6-8.1-69.9-20.5c-17.3-12.3-26.1-28-26.1-43.5s8.8-31.2 26.1-43.5C219.4 376.1 244 368 272 368s52.6 8.1 69.9 20.5c17.3 12.3 26.1 28 26.1 43.5zM8 64L0 64 0 80l8 0 272 0 8 0 0-16-8 0L8 64zM8 192l-8 0 0 16 8 0 272 0 8 0 0-16-8 0L8 192zM8 320l-8 0 0 16 8 0 144 0 8 0 0-16-8 0L8 320z"/></svg>

<svg xmlns="http://www.w3.org/2000/svg" viewBox="0 0 512 512"><!--! Font Awesome Pro 6.5.2 by @fontawesome - https://fontawesome.com License - https://fontawesome.com/license (Commercial License) Copyright 2024 Fonticons, Inc. --><path d="M384 59.5L496 22.2V148.5L384 185.8V128 59.5zM368 48v80 63.1V208 390.8c-19.6-23.2-55.3-38.8-96-38.8c-61.9 0-112 35.8-112 80s50.1 80 112 80s112-35.8 112-80V202.7L512 160V16.9 0L496 5.3 368 48zm0 384c0 15.6-8.8 31.2-26.1 43.5C324.6 487.9 300 496 272 496s-52.6-8.1-69.9-20.5c-17.3-12.3-26.1-28-26.1-43.5s8.8-31.2 26.1-43.5C219.4 376.1 244 368 272 368s52.6 8.1 69.9 20.5c17.3 12.3 26.1 28 26.1 43.5zM8 64H0V80H8 280h8V64h-8H8zM8 192H0v16H8 280h8V192h-8H8zM8 320H0v16H8 152h8V320h-8H8z"/></svg>
